src/pos-icons/car-esp.svg

<svg height="24" viewBox="0 0 24 24" width="24" xmlns="http://www.w3.org/2000/svg"><path d="m5.31 6c1.64-1.84 4.03-3 6.69-3s5.05 1.16 6.69 3h-3.11c-1.05-.63-2.27-1-3.58-1s-2.53.37-3.58 1zm9.09 3.6v-1.6h-3.2a1.6 1.6 0 0 0 -1.6 1.6v1.6c0 .88.72 1.6 1.6 1.6h1.6v1.6h-3.2v1.6h3.2a1.6 1.6 0 0 0 1.6-1.6v-1.6c0-.88-.72-1.6-1.6-1.6h-1.6v-1.6zm4-1.6h-3.2v8h1.6v-3.2h1.6a1.6 1.6 0 0 0 1.6-1.6v-1.6c0-.88-.72-1.6-1.6-1.6m0 3.2h-1.6v-1.6h1.6zm-9.6-1.6v-1.6h-4.8v8h4.8v-1.6h-3.2v-1.6h3.2v-1.6h-3.2v-1.6zm6.78 8.4c-1.05.63-2.27 1-3.58 1s-2.53-.37-3.58-1h-3.11c1.64 1.84 4.03 3 6.69 3s5.05-1.16 6.69-3zm4.92-14.5-1.08 1.08c1.9 1.92 3.08 4.53 3.08 7.42 0 2.9-1.18 5.5-3.08 7.42l1.08 1.08c2.16-2.19 3.5-5.19 3.5-8.5s-1.34-6.31-3.5-8.5m-15.92 1.08-1.08-1.08c-2.16 2.19-3.5 5.19-3.5 8.5s1.34 6.31 3.5 8.5l1.08-1.08c-1.9-1.92-3.08-4.52-3.08-7.42 0-2.89 1.18-5.5 3.08-7.42z"/></svg>

<?xml version="1.0" encoding="UTF-8"?><!DOCTYPE svg PUBLIC "-//W3C//DTD SVG 1.1//EN" "http://www.w3.org/Graphics/SVG/1.1/DTD/svg11.dtd"><svg xmlns="http://www.w3.org/2000/svg" xmlns:xlink="http://www.w3.org/1999/xlink" version="1.1" id="mdi-car-esp" width="24" height="24" viewBox="0 0 24 24"><path d="M5.31,6C6.95,4.16 9.34,3 12,3C14.66,3 17.05,4.16 18.69,6H15.58C14.53,5.37 13.31,5 12,5C10.69,5 9.47,5.37 8.42,6H5.31M14.4,9.6V8H11.2A1.6,1.6 0 0,0 9.6,9.6V11.2C9.6,12.08 10.32,12.8 11.2,12.8H12.8V14.4H9.6V16H12.8A1.6,1.6 0 0,0 14.4,14.4V12.8C14.4,11.92 13.68,11.2 12.8,11.2H11.2V9.6H14.4M18.4,8H15.2V16H16.8V12.8H18.4A1.6,1.6 0 0,0 20,11.2V9.6C20,8.72 19.28,8 18.4,8M18.4,11.2H16.8V9.6H18.4V11.2M8.8,9.6V8H4V16H8.8V14.4H5.6V12.8H8.8V11.2H5.6V9.6H8.8M15.58,18C14.53,18.63 13.31,19 12,19C10.69,19 9.47,18.63 8.42,18H5.31C6.95,19.84 9.34,21 12,21C14.66,21 17.05,19.84 18.69,18H15.58M20.5,3.5L19.42,4.58C21.32,6.5 22.5,9.11 22.5,12C22.5,14.9 21.32,17.5 19.42,19.42L20.5,20.5C22.66,18.31 24,15.31 24,12C24,8.69 22.66,5.69 20.5,3.5M4.58,4.58L3.5,3.5C1.34,5.69 0,8.69 0,12C0,15.31 1.34,18.31 3.5,20.5L4.58,19.42C2.68,17.5 1.5,14.9 1.5,12C1.5,9.11 2.68,6.5 4.58,4.58Z" /></svg>
